site/corp/images/program-inner/program-unit.svg

<svg width="200" height="120" viewBox="0 0 200 120" fill="none" xmlns="http://www.w3.org/2000/svg">
<mask id="mask0" mask-type="alpha" maskUnits="userSpaceOnUse" x="0" y="0" width="200" height="120">
<rect width="200" height="120" fill="#C4C4C4"/>
</mask>
<g mask="url(#mask0)">
<rect x="11" y="67.9999" width="98" height="47.9999" fill="white" stroke="#FDCE34" stroke-width="2"/>
<rect x="21" y="80.0001" width="32" height="18" fill="white" stroke="#FDCE34" stroke-width="2"/>
<rect x="21" y="80.0001" width="20" height="18" fill="white" stroke="#FDCE34" stroke-width="2"/>
<rect x="89" y="80.0001" width="11" height="18" fill="white" stroke="#FDCE34" stroke-width="2"/>
<rect x="5" y="112" width="110" height="6.99995" fill="white" stroke="#FDCE34" stroke-width="2"/>
<rect x="-1" y="1" width="48" height="18" transform="matrix(-1 0 0 1 68 39.0001)" fill="white" stroke="#FDCE34" stroke-width="2"/>
<rect x="63" y="80.0001" width="18" height="38.9999" fill="white" stroke="#FDCE34" stroke-width="2"/>
<path d="M117.586 67.9999L79.8025 30.2168L4.23608 67.9999H117.586Z" fill="white" stroke="#FDCE34" stroke-width="2"/>
<mask id="path-10-inside-1" fill="white">
<path fill-rule="evenodd" clip-rule="evenodd" d="M149.518 64.6307C137.954 71.976 130 87.2938 130 105C130 129.853 145.67 150 165 150C184.33 150 200 129.853 200 105C200 87.2938 192.046 71.976 180.482 64.6307C176.224 67.9931 170.846 70 165 70C159.154 70 153.776 67.9931 149.518 64.6307Z"/>
</mask>
<path fill-rule="evenodd" clip-rule="evenodd" d="M149.518 64.6307C137.954 71.976 130 87.2938 130 105C130 129.853 145.67 150 165 150C184.33 150 200 129.853 200 105C200 87.2938 192.046 71.976 180.482 64.6307C176.224 67.9931 170.846 70 165 70C159.154 70 153.776 67.9931 149.518 64.6307Z" fill="white"/>
<path d="M149.518 64.6307L150.758 63.0611L149.644 62.1815L148.446 62.9424L149.518 64.6307ZM180.482 64.6307L181.554 62.9424L180.356 62.1815L179.242 63.0611L180.482 64.6307ZM132 105C132 87.8384 139.713 73.2282 150.59 66.3189L148.446 62.9424C136.195 70.7239 128 86.7491 128 105H132ZM165 148C147.213 148 132 129.245 132 105H128C128 130.461 144.127 152 165 152V148ZM198 105C198 129.245 182.787 148 165 148V152C185.873 152 202 130.461 202 105H198ZM179.41 66.3189C190.287 73.2282 198 87.8384 198 105H202C202 86.7491 193.805 70.7239 181.554 62.9424L179.41 66.3189ZM179.242 63.0611C175.325 66.1548 170.381 68 165 68V72C171.312 72 177.123 69.8315 181.721 66.2002L179.242 63.0611ZM165 68C159.619 68 154.675 66.1548 150.758 63.0611L148.279 66.2002C152.877 69.8315 158.688 72 165 72V68Z" fill="#319018" mask="url(#path-10-inside-1)"/>
<path d="M194 25C194 38.0919 181.195 49 165 49C148.805 49 136 38.0919 136 25C136 11.9081 148.805 1 165 1C181.195 1 194 11.9081 194 25Z" fill="white" stroke="#319018" stroke-width="2"/>
<mask id="path-13-inside-2" fill="white">
<path fill-rule="evenodd" clip-rule="evenodd" d="M140.956 28.1307C140.333 30.3133 140 32.6177 140 35C140 48.8071 151.193 60 165 60C178.807 60 190 48.8071 190 35C190 24.1998 183.151 14.9991 173.56 11.504C172.12 15.8592 167.494 20.9119 161.001 24.6602C153.235 29.1442 145.186 30.3831 140.956 28.1307Z"/>
</mask>
<path fill-rule="evenodd" clip-rule="evenodd" d="M140.956 28.1307C140.333 30.3133 140 32.6177 140 35C140 48.8071 151.193 60 165 60C178.807 60 190 48.8071 190 35C190 24.1998 183.151 14.9991 173.56 11.504C172.12 15.8592 167.494 20.9119 161.001 24.6602C153.235 29.1442 145.186 30.3831 140.956 28.1307Z" fill="white"/>
<path d="M140.956 28.1307L141.895 26.3653L139.711 25.2023L139.032 27.5823L140.956 28.1307ZM173.56 11.504L174.245 9.62485L172.308 8.91908L171.661 10.8762L173.56 11.504ZM161.001 24.6602L162.001 26.3923L161.001 24.6602ZM142 35C142 32.8051 142.307 30.6851 142.879 28.6791L139.032 27.5823C138.36 29.9414 138 32.4304 138 35H142ZM165 58C152.297 58 142 47.7026 142 35H138C138 49.9117 150.088 62 165 62V58ZM188 35C188 47.7026 177.703 58 165 58V62C179.912 62 192 49.9117 192 35H188ZM172.875 13.3831C181.702 16.5997 188 25.067 188 35H192C192 23.3326 184.601 13.3986 174.245 9.62485L172.875 13.3831ZM171.661 10.8762C170.435 14.5863 166.267 19.3107 160.001 22.9282L162.001 26.3923C168.72 22.5131 173.806 17.1321 175.459 12.1317L171.661 10.8762ZM160.001 22.9282C156.298 25.0665 152.569 26.4049 149.322 26.9491C146.02 27.5026 143.46 27.1981 141.895 26.3653L140.016 29.8961C142.682 31.3157 146.261 31.518 149.983 30.8941C153.76 30.261 157.938 28.738 162.001 26.3923L160.001 22.9282Z" fill="#319018" mask="url(#path-13-inside-2)"/>
<circle cx="157" cy="39" r="3" fill="#319018"/>
<circle cx="173" cy="39" r="3" fill="#319018"/>
<path d="M129 55C129 79.549 113.558 99 95 99C76.4416 99 61 79.549 61 55C61 30.451 76.4416 11 95 11C113.558 11 129 30.451 129 55Z" fill="white" stroke="#319018" stroke-width="2"/>
<mask id="path-18-inside-3" fill="white">
<path fill-rule="evenodd" clip-rule="evenodd" d="M79.5181 74.6307C67.9537 81.976 60 97.2938 60 115C60 139.853 75.67 160 95 160C114.33 160 130 139.853 130 115C130 97.2938 122.046 81.976 110.482 74.6307C106.224 77.9931 100.846 80 95 80C89.1535 80 83.7758 77.9931 79.5181 74.6307Z"/>
</mask>
<path fill-rule="evenodd" clip-rule="evenodd" d="M79.5181 74.6307C67.9537 81.976 60 97.2938 60 115C60 139.853 75.67 160 95 160C114.33 160 130 139.853 130 115C130 97.2938 122.046 81.976 110.482 74.6307C106.224 77.9931 100.846 80 95 80C89.1535 80 83.7758 77.9931 79.5181 74.6307Z" fill="white"/>
<path d="M79.5181 74.6307L80.7577 73.0611L79.6438 72.1815L78.4458 72.9424L79.5181 74.6307ZM110.482 74.6307L111.554 72.9424L110.356 72.1815L109.242 73.0611L110.482 74.6307ZM62 115C62 97.8384 69.7126 83.2282 80.5904 76.3189L78.4458 72.9424C66.1949 80.7239 58 96.7491 58 115H62ZM95 158C77.2132 158 62 139.245 62 115H58C58 140.461 74.1268 162 95 162V158ZM128 115C128 139.245 112.787 158 95 158V162C115.873 162 132 140.461 132 115H128ZM109.41 76.3189C120.287 83.2282 128 97.8384 128 115H132C132 96.7491 123.805 80.7239 111.554 72.9424L109.41 76.3189ZM109.242 73.0611C105.325 76.1548 100.381 78 95 78V82C101.312 82 107.123 79.8315 111.721 76.2002L109.242 73.0611ZM95 78C89.6192 78 84.675 76.1548 80.7577 73.0611L78.2786 76.2002C82.8766 79.8315 88.6879 82 95 82V78Z" fill="#319018" mask="url(#path-18-inside-3)"/>
<mask id="path-20-inside-4" fill="white">
<path fill-rule="evenodd" clip-rule="evenodd" d="M70.5491 39.7646C70.1893 41.4529 70 43.2044 70 45C70 58.8072 81.1929 70 95 70C108.807 70 120 58.8072 120 45C120 34.0941 113.017 24.8192 103.278 21.403C102.58 26.072 97.6364 31.942 90.3303 36.1603C82.7226 40.5525 74.8447 41.831 70.5491 39.7646Z"/>
</mask>
<path fill-rule="evenodd" clip-rule="evenodd" d="M70.5491 39.7646C70.1893 41.4529 70 43.2044 70 45C70 58.8072 81.1929 70 95 70C108.807 70 120 58.8072 120 45C120 34.0941 113.017 24.8192 103.278 21.403C102.58 26.072 97.6364 31.942 90.3303 36.1603C82.7226 40.5525 74.8447 41.831 70.5491 39.7646Z" fill="white"/>
<path d="M70.5491 39.7646L71.4161 37.9623L69.1233 36.8592L68.593 39.3477L70.5491 39.7646ZM103.278 21.403L103.94 19.5158L101.657 18.7151L101.3 21.1075L103.278 21.403ZM90.3303 36.1603L91.3303 37.8923L90.3303 36.1603ZM72 45C72 43.3453 72.1744 41.7336 72.5052 40.1814L68.593 39.3477C68.2042 41.1723 68 43.0634 68 45H72ZM95 68C82.2975 68 72 57.7026 72 45H68C68 59.9117 80.0883 72 95 72V68ZM118 45C118 57.7026 107.703 68 95 68V72C109.912 72 122 59.9117 122 45H118ZM102.616 23.2903C111.578 26.4341 118 34.9697 118 45H122C122 33.2185 114.455 23.2044 103.94 19.5158L102.616 23.2903ZM101.3 21.1075C101.028 22.9257 99.8719 25.2185 97.7714 27.6402C95.6964 30.0325 92.8128 32.4176 89.3303 34.4282L91.3303 37.8923C95.1539 35.6847 98.3953 33.0257 100.793 30.2611C103.165 27.526 104.83 24.5493 105.256 21.6986L101.3 21.1075ZM89.3303 34.4282C85.703 36.5224 82.0506 37.8499 78.85 38.4149C75.6008 38.9885 73.0349 38.741 71.4161 37.9623L69.682 41.5668C72.3588 42.8546 75.8797 43.0011 79.5454 42.354C83.2595 41.6983 87.3499 40.1904 91.3303 37.8923L89.3303 34.4282Z" fill="#319018" mask="url(#path-20-inside-4)"/>
<circle cx="87" cy="49" r="3" fill="#319018"/>
<circle cx="103" cy="49" r="3" fill="#319018"/>
<circle cx="135" cy="95" r="24" fill="white" stroke="#319018" stroke-width="2"/>
<circle cx="127" cy="99" r="3" fill="#319018"/>
<circle cx="143" cy="99" r="3" fill="#319018"/>
<mask id="path-27-inside-5" fill="white">
<path fill-rule="evenodd" clip-rule="evenodd" d="M123.025 84H146.973C146.561 76.182 141.358 70 134.999 70C128.641 70 123.437 76.182 123.025 84Z"/>
</mask>
<path fill-rule="evenodd" clip-rule="evenodd" d="M123.025 84H146.973C146.561 76.182 141.358 70 134.999 70C128.641 70 123.437 76.182 123.025 84Z" fill="white"/>
<path d="M123.025 84L121.028 83.8948L120.917 86H123.025V84ZM146.973 84V86H149.081L148.97 83.8948L146.973 84ZM123.025 86H146.973V82H123.025V86ZM134.999 72C139.925 72 144.598 76.937 144.976 84.1052L148.97 83.8948C148.524 75.4269 142.79 68 134.999 68V72ZM125.023 84.1052C125.4 76.937 130.073 72 134.999 72V68C127.208 68 121.474 75.4269 121.028 83.8948L125.023 84.1052Z" fill="#319018" mask="url(#path-27-inside-5)"/>
</g>
</svg>

<svg width="200" height="120" viewBox="0 0 200 120" fill="none" xmlns="http://www.w3.org/2000/svg"><mask id="a" maskUnits="userSpaceOnUse" x="0" y="0" width="200" height="120"><path fill="#C4C4C4" d="M0 0h200v120H0z"/></mask><g mask="url(#a)"><path fill="#fff" stroke="#FDCE34" stroke-width="2" d="M11 68h98v48H11z"/><path fill="#fff" stroke="#FDCE34" stroke-width="2" d="M21 80h32v18H21z"/><path fill="#fff" stroke="#FDCE34" stroke-width="2" d="M21 80h20v18H21zm68 0h11v18H89zM5 112h110v7H5zm64-72H21v18h48z"/><path fill="#fff" stroke="#FDCE34" stroke-width="2" d="M63 80h18v39H63zm54.586-12L79.802 30.217 4.236 68h113.35z"/><mask id="b" fill="#fff"><path fill-rule="evenodd" clip-rule="evenodd" d="M149.518 64.63C137.954 71.977 130 87.295 130 105c0 24.853 15.67 45 35 45s35-20.147 35-45c0-17.706-7.954-33.024-19.518-40.37A24.896 24.896 0 0 1 165 70a24.896 24.896 0 0 1-15.482-5.37z"/></mask><path fill-rule="evenodd" clip-rule="evenodd" d="M149.518 64.63C137.954 71.977 130 87.295 130 105c0 24.853 15.67 45 35 45s35-20.147 35-45c0-17.706-7.954-33.024-19.518-40.37A24.896 24.896 0 0 1 165 70a24.896 24.896 0 0 1-15.482-5.37z" fill="#fff"/><path d="M149.518 64.63l1.24-1.569-1.114-.88-1.198.761 1.072 1.689zm30.964 0l1.072-1.688-1.198-.76-1.114.88 1.24 1.569zM132 105c0-17.162 7.713-31.772 18.59-38.681l-2.144-3.377C136.195 70.724 128 86.75 128 105h4zm33 43c-17.787 0-33-18.755-33-43h-4c0 25.461 16.127 47 37 47v-4zm33-43c0 24.245-15.213 43-33 43v4c20.873 0 37-21.539 37-47h-4zm-18.59-38.681C190.287 73.229 198 87.839 198 105h4c0-18.25-8.195-34.276-20.446-42.058l-2.144 3.377zm-.168-3.258A22.891 22.891 0 0 1 165 68v4a26.892 26.892 0 0 0 16.721-5.8l-2.479-3.139zM165 68a22.891 22.891 0 0 1-14.242-4.939l-2.479 3.14A26.892 26.892 0 0 0 165 72v-4z" fill="#319018" mask="url(#b)"/><path d="M194 25c0 13.092-12.805 24-29 24s-29-10.908-29-24 12.805-24 29-24 29 10.908 29 24z" fill="#fff" stroke="#319018" stroke-width="2"/><mask id="c" fill="#fff"><path fill-rule="evenodd" clip-rule="evenodd" d="M140.956 28.13A24.992 24.992 0 0 0 140 35c0 13.807 11.193 25 25 25s25-11.193 25-25c0-10.8-6.849-20-16.44-23.496-1.44 4.355-6.066 9.408-12.559 13.156-7.766 4.484-15.815 5.723-20.045 3.47z"/></mask><path fill-rule="evenodd" clip-rule="evenodd" d="M140.956 28.13A24.992 24.992 0 0 0 140 35c0 13.807 11.193 25 25 25s25-11.193 25-25c0-10.8-6.849-20-16.44-23.496-1.44 4.355-6.066 9.408-12.559 13.156-7.766 4.484-15.815 5.723-20.045 3.47z" fill="#fff"/><path d="M140.956 28.13l.939-1.765-2.184-1.163-.679 2.38 1.924.549zm32.604-16.626l.685-1.88-1.937-.705-.647 1.957 1.899.628zM161.001 24.66l1 1.732-1-1.732zM142 35c0-2.195.307-4.315.879-6.32l-3.847-1.098A27.043 27.043 0 0 0 138 35h4zm23 23c-12.703 0-23-10.297-23-23h-4c0 14.912 12.088 27 27 27v-4zm23-23c0 12.703-10.297 23-23 23v4c14.912 0 27-12.088 27-27h-4zm-15.125-21.617C181.702 16.6 188 25.067 188 35h4c0-11.667-7.399-21.601-17.755-25.375l-1.37 3.758zm-1.214-2.507c-1.226 3.71-5.394 8.435-11.66 12.052l2 3.464c6.719-3.879 11.805-9.26 13.458-14.26l-3.798-1.256zm-11.66 12.052c-3.703 2.139-7.432 3.477-10.679 4.021-3.302.554-5.862.25-7.427-.584l-1.879 3.531c2.666 1.42 6.245 1.622 9.967.998 3.777-.633 7.955-2.156 12.018-4.502l-2-3.464z" fill="#319018" mask="url(#c)"/><circle cx="157" cy="39" r="3" fill="#319018"/><circle cx="173" cy="39" r="3" fill="#319018"/><path d="M129 55c0 24.549-15.442 44-34 44S61 79.549 61 55s15.442-44 34-44 34 19.451 34 44z" fill="#fff" stroke="#319018" stroke-width="2"/><mask id="d" fill="#fff"><path fill-rule="evenodd" clip-rule="evenodd" d="M79.518 74.63C67.954 81.977 60 97.295 60 115c0 24.853 15.67 45 35 45s35-20.147 35-45c0-17.706-7.954-33.024-19.518-40.37A24.896 24.896 0 0 1 95 80a24.894 24.894 0 0 1-15.482-5.37z"/></mask><path fill-rule="evenodd" clip-rule="evenodd" d="M79.518 74.63C67.954 81.977 60 97.295 60 115c0 24.853 15.67 45 35 45s35-20.147 35-45c0-17.706-7.954-33.024-19.518-40.37A24.896 24.896 0 0 1 95 80a24.894 24.894 0 0 1-15.482-5.37z" fill="#fff"/><path d="M79.518 74.63l1.24-1.569-1.114-.88-1.198.761 1.072 1.689zm30.964 0l1.072-1.688-1.198-.76-1.114.88 1.24 1.569zM62 115c0-17.162 7.713-31.772 18.59-38.681l-2.144-3.377C66.195 80.724 58 96.75 58 115h4zm33 43c-17.787 0-33-18.755-33-43h-4c0 25.461 16.127 47 37 47v-4zm33-43c0 24.245-15.213 43-33 43v4c20.873 0 37-21.539 37-47h-4zm-18.59-38.681C120.287 83.229 128 97.839 128 115h4c0-18.25-8.195-34.276-20.446-42.058l-2.144 3.377zm-.168-3.258A22.891 22.891 0 0 1 95 78v4a26.892 26.892 0 0 0 16.721-5.8l-2.479-3.139zM95 78a22.893 22.893 0 0 1-14.242-4.939l-2.48 3.14A26.893 26.893 0 0 0 95 82v-4z" fill="#319018" mask="url(#d)"/><mask id="e" fill="#fff"><path fill-rule="evenodd" clip-rule="evenodd" d="M70.55 39.765C70.19 41.453 70 43.205 70 45c0 13.807 11.193 25 25 25s25-11.193 25-25c0-10.906-6.983-20.18-16.722-23.597-.698 4.669-5.642 10.539-12.948 14.757-7.607 4.393-15.485 5.671-19.78 3.605z"/></mask><path fill-rule="evenodd" clip-rule="evenodd" d="M70.55 39.765C70.19 41.453 70 43.205 70 45c0 13.807 11.193 25 25 25s25-11.193 25-25c0-10.906-6.983-20.18-16.722-23.597-.698 4.669-5.642 10.539-12.948 14.757-7.607 4.393-15.485 5.671-19.78 3.605z" fill="#fff"/><path d="M70.55 39.765l.866-1.803-2.293-1.103-.53 2.489 1.956.417zm32.728-18.362l.662-1.887-2.283-.8-.357 2.392 1.978.295zM90.33 36.16l1 1.732-1-1.732zM72 45c0-1.655.174-3.266.505-4.819l-3.912-.833A27.1 27.1 0 0 0 68 45h4zm23 23c-12.703 0-23-10.297-23-23h-4c0 14.912 12.088 27 27 27v-4zm23-23c0 12.703-10.297 23-23 23v4c14.912 0 27-12.088 27-27h-4zm-15.384-21.71C111.578 26.434 118 34.97 118 45h4c0-11.782-7.545-21.796-18.06-25.484l-1.324 3.774zm-1.316-2.182c-.272 1.818-1.428 4.11-3.529 6.532-2.075 2.392-4.958 4.778-8.44 6.788l2 3.464c3.823-2.207 7.064-4.866 9.462-7.63 2.372-2.736 4.037-5.713 4.463-8.563l-3.956-.591zm-11.97 13.32c-3.627 2.094-7.28 3.422-10.48 3.987-3.25.574-5.815.326-7.434-.453l-1.734 3.605c2.677 1.288 6.198 1.434 9.863.787 3.715-.656 7.805-2.164 11.785-4.462l-2-3.464z" fill="#319018" mask="url(#e)"/><circle cx="87" cy="49" r="3" fill="#319018"/><circle cx="103" cy="49" r="3" fill="#319018"/><circle cx="135" cy="95" r="24" fill="#fff" stroke="#319018" stroke-width="2"/><circle cx="127" cy="99" r="3" fill="#319018"/><circle cx="143" cy="99" r="3" fill="#319018"/><mask id="f" fill="#fff"><path fill-rule="evenodd" clip-rule="evenodd" d="M123.025 84h23.948c-.412-7.818-5.615-14-11.974-14-6.358 0-11.562 6.182-11.974 14z"/></mask><path fill-rule="evenodd" clip-rule="evenodd" d="M123.025 84h23.948c-.412-7.818-5.615-14-11.974-14-6.358 0-11.562 6.182-11.974 14z" fill="#fff"/><path d="M123.025 84l-1.997-.105-.111 2.105h2.108v-2zm23.948 0v2h2.108l-.111-2.105-1.997.105zm-23.948 2h23.948v-4h-23.948v4zm11.974-14c4.926 0 9.599 4.937 9.977 12.105l3.994-.21C148.524 75.427 142.79 68 134.999 68v4zm-9.976 12.105C125.4 76.937 130.073 72 134.999 72v-4c-7.791 0-13.525 7.427-13.971 15.895l3.995.21z" fill="#319018" mask="url(#f)"/></g></svg>
